src/assets/data/principles/2.svg

<svg width="860" height="750" viewBox="0 0 860 750" fill="none" xmlns="http://www.w3.org/2000/svg">
<g clip-path="url(#clip0_2163_2954)">
<g clip-path="url(#clip1_2163_2954)">
<path d="M169 426.899C169 450.915 188.295 470.382 212.119 470.382C235.942 470.382 255.237 450.915 255.237 426.899C255.237 402.882 235.942 383.415 212.119 383.415C188.295 383.415 169 402.882 169 426.899Z" fill="url(#paint0_linear_2163_2954)"/>
<path d="M545.821 121.805C545.821 156.21 573.573 184.112 607.806 184.112C642.039 184.112 669.79 156.21 669.79 121.805C669.79 87.4006 642.039 59.499 607.806 59.499C573.573 59.499 545.821 87.4006 545.821 121.805Z" fill="url(#paint1_linear_2163_2954)"/>
<path d="M456.279 720.809C427.647 720.809 404.425 697.587 404.425 668.955V294.109C404.425 265.478 427.647 242.255 456.279 242.255C484.91 242.255 508.133 265.478 508.133 294.109V668.955C508.133 697.587 484.91 720.809 456.279 720.809Z" fill="url(#paint2_linear_2163_2954)"/>
<path d="M508.133 293.036C508.133 264.512 485.017 241.396 456.493 241.396C427.969 241.396 404.854 264.512 404.854 293.036C404.854 321.56 427.969 344.675 456.493 344.675C485.017 344.675 508.133 321.56 508.133 293.036Z" fill="url(#paint3_linear_2163_2954)"/>
<path d="M623.345 325.444C623.345 337.85 633.239 347.916 645.451 347.916C657.664 347.916 667.558 337.85 667.558 325.444C667.558 313.039 657.664 302.973 645.451 302.973C633.239 302.973 623.345 313.039 623.345 325.444Z" fill="url(#paint4_linear_2163_2954)"/>
<path d="M625.169 63.4271C628.989 51.6226 622.679 39.0025 611.068 35.2466C599.456 31.4906 586.944 37.9938 583.123 49.7983C579.303 61.6028 585.613 74.2229 597.224 77.9789C608.836 81.7348 621.348 75.2316 625.169 63.4271Z" fill="url(#paint5_linear_2163_2954)"/>
<path d="M313.203 245.015L269.729 256.664L281.378 300.138L324.852 288.489L313.203 245.015Z" fill="url(#paint6_linear_2163_2954)"/>
<path d="M389.233 526.903L357.408 558.728L389.233 590.553L421.058 558.728L389.233 526.903Z" fill="url(#paint7_linear_2163_2954)"/>
<path fill-rule="evenodd" clip-rule="evenodd" d="M343.256 38.7664C339.414 38.7664 335.722 37.2425 333.018 34.5167L326.751 28.2496C321.085 22.5835 311.92 22.5835 306.254 28.2496L299.987 34.5167C297.261 37.2425 293.591 38.7664 289.749 38.7664H280.885C272.879 38.7664 266.398 45.2481 266.398 53.2537V62.1178C266.398 65.9596 264.874 69.6512 262.148 72.3555L255.881 78.6226C250.215 84.2888 250.215 93.4534 255.881 99.1196L262.148 105.387C264.874 108.112 266.398 111.783 266.398 115.624V124.488C266.398 132.494 272.879 138.976 280.885 138.976H289.749C293.591 138.976 297.283 140.5 300.008 143.225L306.275 149.493C311.942 155.159 321.106 155.159 326.772 149.493L333.039 143.225C335.765 140.5 339.435 138.976 343.299 138.976H352.163C360.168 138.976 366.65 132.494 366.65 124.488V115.624C366.65 111.783 368.174 108.091 370.9 105.387L377.167 99.1196C382.833 93.4534 382.833 84.2888 377.167 78.6226L370.9 72.3555C368.174 69.6298 366.65 65.9596 366.65 62.1178V53.2537C366.65 45.2481 360.168 38.7664 352.163 38.7664H343.299H343.256Z" fill="url(#paint8_linear_2163_2954)"/>
<path d="M602.934 593.171V505.045H691.06L602.934 593.171Z" fill="url(#paint9_linear_2163_2954)"/>
</g>
</g>
<defs>
<linearGradient id="paint0_linear_2163_2954" x1="264.445" y1="405.135" x2="134.745" y2="459.114" gradientUnits="userSpaceOnUse">
<stop stop-color="#181818"/>
<stop offset="1" stop-color="#929292"/>
</linearGradient>
<linearGradient id="paint1_linear_2163_2954" x1="545.735" y1="183.468" x2="703.701" y2="26.5752" gradientUnits="userSpaceOnUse">
<stop stop-color="#181818"/>
<stop offset="1" stop-color="#929292"/>
</linearGradient>
<linearGradient id="paint2_linear_2163_2954" x1="456.279" y1="308.682" x2="456.279" y2="549.494" gradientUnits="userSpaceOnUse">
<stop stop-color="#EF7D00"/>
<stop offset="1" stop-color="#181818"/>
</linearGradient>
<linearGradient id="paint3_linear_2163_2954" x1="446.462" y1="250.876" x2="351.131" y2="339.055" gradientUnits="userSpaceOnUse">
<stop stop-color="#FF7527"/>
<stop offset="1" stop-color="#121212"/>
</linearGradient>
<linearGradient id="paint4_linear_2163_2954" x1="614.738" y1="314.541" x2="681.058" y2="338.107" gradientUnits="userSpaceOnUse">
<stop stop-color="#181818"/>
<stop offset="1" stop-color="#929292"/>
</linearGradient>
<linearGradient id="paint5_linear_2163_2954" x1="640.146" y1="47.1686" x2="580.585" y2="62.9103" gradientUnits="userSpaceOnUse">
<stop stop-color="#181818"/>
<stop offset="1" stop-color="#929292"/>
</linearGradient>
<linearGradient id="paint6_linear_2163_2954" x1="344.335" y1="262.937" x2="261.375" y2="279.967" gradientUnits="userSpaceOnUse">
<stop stop-color="#181818"/>
<stop offset="1" stop-color="#929292"/>
</linearGradient>
<linearGradient id="paint7_linear_2163_2954" x1="389.233" y1="509.51" x2="389.218" y2="582.008" gradientUnits="userSpaceOnUse">
<stop stop-color="#181818"/>
<stop offset="1" stop-color="#929292"/>
</linearGradient>
<linearGradient id="paint8_linear_2163_2954" x1="362.336" y1="161.233" x2="243.862" y2="-25.7291" gradientUnits="userSpaceOnUse">
<stop stop-color="#181818"/>
<stop offset="1" stop-color="#929292"/>
</linearGradient>
<linearGradient id="paint9_linear_2163_2954" x1="580.698" y1="466.112" x2="702.628" y2="618.733" gradientUnits="userSpaceOnUse">
<stop stop-color="#181818"/>
<stop offset="1" stop-color="#929292"/>
</linearGradient>
<clipPath id="clip0_2163_2954">
<rect width="860" height="750" fill="white"/>
</clipPath>
<clipPath id="clip1_2163_2954">
<rect width="522.06" height="696.809" fill="white" transform="translate(169 24)"/>
</clipPath>
</defs>
</svg>

<svg width="860" height="750" viewBox="0 0 860 750" fill="none" xmlns="http://www.w3.org/2000/svg">
  <g clip-path="url(#a)">
    <g clip-path="url(#b)">
      <path fill="url(#c)" d="M169 426.899c0 24.016 19.295 43.483 43.119 43.483 23.823 0 43.118-19.467 43.118-43.483 0-24.017-19.295-43.484-43.118-43.484-23.824 0-43.119 19.467-43.119 43.484Z"/>
      <path fill="url(#d)" d="M545.821 121.805c0 34.405 27.752 62.307 61.985 62.307 34.233 0 61.984-27.902 61.984-62.307 0-34.404-27.751-62.306-61.984-62.306-34.233 0-61.985 27.902-61.985 62.306Z"/>
      <path fill="url(#e)" d="M456.279 720.809c-28.632 0-51.854-23.222-51.854-51.854V294.109c0-28.631 23.222-51.854 51.854-51.854 28.631 0 51.854 23.223 51.854 51.854v374.846c0 28.632-23.223 51.854-51.854 51.854Z"/>
      <path fill="url(#f)" d="M508.133 293.036c0-28.524-23.116-51.64-51.64-51.64s-51.639 23.116-51.639 51.64 23.115 51.639 51.639 51.639c28.524 0 51.64-23.115 51.64-51.639Z"/>
      <path fill="url(#g)" d="M623.345 325.444c0 12.406 9.894 22.472 22.106 22.472 12.213 0 22.107-10.066 22.107-22.472 0-12.405-9.894-22.471-22.107-22.471-12.212 0-22.106 10.066-22.106 22.471Z"/>
      <path fill="url(#h)" d="M625.169 63.427c3.82-11.804-2.49-24.425-14.101-28.18-11.612-3.756-24.124 2.747-27.945 14.551-3.82 11.805 2.49 24.425 14.101 28.18 11.612 3.757 24.124-2.746 27.945-14.55Z"/>
      <path fill="url(#i)" d="m313.203 245.015-43.474 11.649 11.649 43.474 43.474-11.649-11.649-43.474Z"/>
      <path fill="url(#j)" d="m389.233 526.903-31.825 31.825 31.825 31.825 31.825-31.825-31.825-31.825Z"/>
      <path fill="url(#k)" fill-rule="evenodd" d="M343.256 38.766a14.42 14.42 0 0 1-10.238-4.25l-6.267-6.266c-5.666-5.666-14.831-5.666-20.497 0l-6.267 6.267a14.458 14.458 0 0 1-10.238 4.25h-8.864c-8.006 0-14.487 6.481-14.487 14.487v8.864a14.42 14.42 0 0 1-4.25 10.238l-6.267 6.267c-5.666 5.666-5.666 14.83 0 20.497l6.267 6.267a14.456 14.456 0 0 1 4.25 10.237v8.864c0 8.006 6.481 14.488 14.487 14.488h8.864c3.842 0 7.534 1.524 10.259 4.249l6.267 6.268c5.667 5.666 14.831 5.666 20.497 0l6.267-6.268a14.474 14.474 0 0 1 10.26-4.249h8.864c8.005 0 14.487-6.482 14.487-14.488v-8.864a14.42 14.42 0 0 1 4.25-10.237l6.267-6.267c5.666-5.667 5.666-14.831 0-20.497l-6.267-6.267a14.457 14.457 0 0 1-4.25-10.238v-8.864c0-8.006-6.482-14.488-14.487-14.488h-8.907Z" clip-rule="evenodd"/>
      <path fill="url(#l)" d="M602.934 593.171v-88.126h88.126l-88.126 88.126Z"/>
    </g>
  </g>
  <defs>
    <linearGradient id="c" x1="264.445" x2="134.745" y1="405.135" y2="459.114" gradientUnits="userSpaceOnUse">
      <stop stop-color="#181818"/>
      <stop offset="1" stop-color="#929292"/>
    </linearGradient>
    <linearGradient id="d" x1="545.735" x2="703.701" y1="183.468" y2="26.575" gradientUnits="userSpaceOnUse">
      <stop stop-color="#181818"/>
      <stop offset="1" stop-color="#929292"/>
    </linearGradient>
    <linearGradient id="e" x1="456.279" x2="456.279" y1="308.682" y2="549.494" gradientUnits="userSpaceOnUse">
      <stop stop-color="#EF7D00"/>
      <stop offset="1" stop-color="#181818"/>
    </linearGradient>
    <linearGradient id="f" x1="446.462" x2="351.131" y1="250.876" y2="339.055" gradientUnits="userSpaceOnUse">
      <stop stop-color="#FF7527"/>
      <stop offset="1" stop-color="#121212"/>
    </linearGradient>
    <linearGradient id="g" x1="614.738" x2="681.058" y1="314.541" y2="338.107" gradientUnits="userSpaceOnUse">
      <stop stop-color="#181818"/>
      <stop offset="1" stop-color="#929292"/>
    </linearGradient>
    <linearGradient id="h" x1="640.146" x2="580.585" y1="47.169" y2="62.91" gradientUnits="userSpaceOnUse">
      <stop stop-color="#181818"/>
      <stop offset="1" stop-color="#929292"/>
    </linearGradient>
    <linearGradient id="i" x1="344.335" x2="261.375" y1="262.937" y2="279.967" gradientUnits="userSpaceOnUse">
      <stop stop-color="#181818"/>
      <stop offset="1" stop-color="#929292"/>
    </linearGradient>
    <linearGradient id="j" x1="389.233" x2="389.218" y1="509.51" y2="582.008" gradientUnits="userSpaceOnUse">
      <stop stop-color="#181818"/>
      <stop offset="1" stop-color="#929292"/>
    </linearGradient>
    <linearGradient id="k" x1="362.336" x2="243.862" y1="161.233" y2="-25.729" gradientUnits="userSpaceOnUse">
      <stop stop-color="#181818"/>
      <stop offset="1" stop-color="#929292"/>
    </linearGradient>
    <linearGradient id="l" x1="580.698" x2="702.628" y1="466.112" y2="618.733" gradientUnits="userSpaceOnUse">
      <stop stop-color="#181818"/>
      <stop offset="1" stop-color="#929292"/>
    </linearGradient>
    <clipPath id="a">
      <path fill="#fff" d="M0 0h860v750H0z"/>
    </clipPath>
    <clipPath id="b">
      <path fill="#fff" d="M169 24h522.06v696.809H169z"/>
    </clipPath>
  </defs>
</svg>
